!!!!SEGMENT: pl-kk--kk-i-277--001-003_anonim--rorate-caeli-tollite-portas.krn
!!!cenid: 16xx:1075
!!!COM: Anonim
!!!COM-rismID: pe30004985
!!!CDT:
!!!CNT:
!!!OPR: Rorate caeli
!!!OTL: Tollite portas
!!!OMV: 003
!!!PDT:
!!!AGN: Sacred
!!!SMS-siglum: PL-Kk
!!!SMS-shelfmark: Kk.I.277
!!!SMS-shelfwork: 001-003 M
!!!SMS-variant:
!!!SMS-altvar:
!!!NIFC-rismSourceID: 1001147171
!!!NIFC-rismChildID: 1001147186
!!!NIFC-islandoraID: pl-kk:4889
!!!URL-pdf-islandora: https://repozytorium.nifc.pl/islandora/object/pl-kk%3A4889/datastream/PDF/view
!!!URL-scan: https://polish.musicsources.pl/pl/lokalizacje/galeria/rekopisy/5895 @EN{Scan on Polish Music Sources Website} @PL{Skany w portalu Dziedzictwo Muzyki Polskiej w otwartym dostępie}
!!!ONB-nifc: UWAGA: Rorate 1mi officii od str. 1. Części: 1. Rorate caeli (Rorate caeli + Benedixisti + Gloria patri), 2. Kyrie, 3. Tollite portas, 4. Alleluia, 5. Mittit ad virginem, 6. Ave Maria, 7. Sanctus, 8. Agnus Dei, 9. Ecce virgo, 10. Deo gratias
!!!AIN: 1 tenor
!!!key:
**kern	**text
*Itenor	*
*I"[Tenore]	*
*I'[T]	*
*clefC4	*
*k[]	*
*B-:	*
*M2/1	*
*met(C)	*
=1-	=1-
1C	Tol-
*lig	*
1F	.
=2-	=2-
1D	.
*Xlig	*
1D	-li-
=3-	=3-
1D	-te
1F	por-
=4-	=4-
1D	.
*lig	*
1E	.
=5-	=5-
1F	.
*Xlig	*
*lig	*
1D	.
=6-	=6-
1C	.
*Xlig	*
*lig	*
1F	.
=7-	=7-
1C	.
*Xlig	*
*lig	*
1D	.
=8-	=8-
1F	.
*Xlig	*
!LO:TX:a:t=P:global:problem=rozdzielacz słów	!
1D,<	-tas
=9-	=9-
*lig	*
1F	prin-
1D	.
*Xlig	*
=10-	=10-
*lig	*
1F	.
1G	.
*Xlig	*
=11-	=11-
*lig	*
1A	.
1F	.
*Xlig	*
=12-	=12-
*lig	*
1E	-ci-
1D	.
*Xlig	*
!LO:LB:g=original	!
=13-	=13-
*lig	*
1D	pes
1C	.
*Xlig	*
=14-	=14-
*lig	*
1F	.
1D	.
*Xlig	*
=15-	=15-
1C	.
*lig	*
1C	ve-
=16-	=16-
1BB	.
*Xlig	*
*lig	*
1C	.
=17-	=17-
1D	.
*Xlig	*
*lig	*
1C	.
=18-	=18-
1D	.
*Xlig	*
*lig	*
1D	-stras
=19-	=19-
1C	.
*Xlig	*
1C	.
=20-	=20-
1D	.
*lig	*
1E	.
=21-	=21-
1F	.
*Xlig	*
*lig	*
1D	.
=22-	=22-
1C	.
*Xlig	*
1D	.
=23-	=23-
*lig	*
1F	.
1G	.
*Xlig	*
=24-	=24-
!LO:TX:a:t=2	!
0F	.
=25-	=25-
*lig	*
1D	.
1F	.
*Xlig	*
=26-	=26-
1D,<	.
1F	et
!LO:LB:g=original	!
=27-	=27-
1F	e-
(1F	-le-
=28-	=28-
1G)	.
*lig	*
1G	-ua-
=29-	=29-
1E	.
*Xlig	*
*lig	*
1F	.
=30-	=30-
1D	.
*Xlig	*
1C	.
=31-	=31-
1D	-mi-
1D	-ni
=32-	=32-
*lig	*
1F	por-
1D	.
*Xlig	*
=33-	=33-
*lig	*
1F	.
1G	.
*Xlig	*
=34-	=34-
*lig	*
1D	.
1A	.
*Xlig	*
=35-	=35-
1A	.
*lig	*
1F	.
=36-	=36-
1D	.
*Xlig	*
*lig	*
1F	-tae
=37-	=37-
1E	.
*Xlig	*
*lig	*
1F	.
=38-	=38-
1D	.
*Xlig	*
1D	ae-
=39-	=39-
1C	-ter-
1D	-na-
!LO:PB:g=original	!
=40-	=40-
*lig	*
1F	.
1D	.
*Xlig	*
=41-	=41-
1F	.
!LO:TX:a:t=2	!
0F	-les
=42-	=42-
.	.
!LO:TX:a:t=2	!
0D,<	.
=43-	=43-
.	.
*lig	*
1F	.
=44-	=44-
1G	.
*Xlig	*
*lig	*
1F	.
=45-	=45-
1G	.
*Xlig	*
*lig	*
1A	.
=46-	=46-
1F	.
*Xlig	*
*lig	*
1G	.
=47-	=47-
1F,<	.
*Xlig	*
1F	et
=48-	=48-
1F	in-
1F	-tro-
=49-	=49-
(>1F	-i-
1E)	.
=50-	=50-
*lig	*
1G	.
1A	.
*Xlig	*
=51-	=51-
*lig	*
1F	.
1E	.
*Xlig	*
=52-	=52-
*lig	*
1G	.
1F	.
*Xlig	*
=53-	=53-
*lig	*
1G	.
*custos:E	*
1F	.
*Xlig	*
!LO:LB:g=original	!
=54-	=54-
*lig	*
1E	.
1D	.
*Xlig	*
=55-	=55-
1D	-bit
1F	.
=56-	=56-
*lig	*
1D	.
1C	.
*Xlig	*
=57-	=57-
*lig	*
1D	.
1F	.
*Xlig	*
=58-	=58-
1E	.
!LO:TX:a:t=2	!
0F	.
=59-	=59-
.	.
*lig	*
1E	.
=60-	=60-
1D	.
*Xlig	*
*lig	*
1F	.
=61-	=61-
1C	.
*Xlig	*
1BB,<	.
=62-	=62-
*lig	*
1BB	Rex
1C	.
*Xlig	*
=63-	=63-
*lig	*
1D	.
1F	.
*Xlig	*
=64-	=64-
*lig	*
1E	.
1D	.
*Xlig	*
=65-	=65-
1F	.
*lig	*
1C	glo-
=66-	=66-
1D	.
*Xlig	*
*lig	*
1F	.
=67-	=67-
*custos:F	*
1D	.
*Xlig	*
!LO:LB:g=original	!
*lig	*
1F	.
=68-	=68-
1G	.
*Xlig	*
1G	-ri-
=69-	=69-
1F	-ae
*lig	*
1G	.
=70-	=70-
1A	.
*Xlig	*
!LO:TX:a:t=2	!
0G	.
=71-	=71-
.	.
1Fl;;	.
=72||	=72||
1D	Quis
1D	a-
=73-	=73-
*lig	*
1F	.
1E	.
*Xlig	*
=74-	=74-
*lig	*
1F	-scen-
1G	.
*Xlig	*
=75-	=75-
1G,<	-det
1G	in
=76-	=76-
1G	Mon-
1G,<	-tem
=77-	=77-
*lig	*
1G	Do-
*custos:G	*
1F	.
*Xlig	*
!LO:LB:g=original	!
=78-	=78-
*lig	*
1G	.
1A	.
*Xlig	*
=79-	=79-
1B	.
*lig	*
1G	.
=80-	=80-
1F	.
*Xlig	*
*lig	*
1F	-mi-
=81-	=81-
1G	.
*Xlig	*
1A	.
=82-	=82-
1G	.
!LO:TX:a:t=2	!
0A	-ni
=83-	=83-
.	.
*lig	*
1B	.
=84-	=84-
1A	.
*Xlig	*
1G	.
=85-	=85-
*lig	*
1B	.
1A	.
*Xlig	*
=86-	=86-
1G,<	.
1G	aut
=87-	=87-
*lig	*
1B	qvis
1G	.
*Xlig	*
=88-	=88-
*lig	*
1A	.
1B	.
*Xlig	*
=89-	=89-
*lig	*
1A	.
1G	.
*Xlig	*
=90-	=90-
1G	Sta-
*custos:G	*
1G	-bit
!LO:LB:g=original	!
=91-	=91-
1G	in
1G	lo-
=92-	=92-
1G	-co
1G	San-
=93-	=93-
*lig	*
1G	-cto
1A	.
*Xlig	*
=94-	=94-
*lig	*
1A	e-
1F	.
*Xlig	*
=95-	=95-
*lig	*
1A	.
1G	.
*Xlig	*
=96-	=96-
!LO:TX:a:t=2	!
0F	.
=97-	=97-
1D	.
!LO:TX:a:t=2	!
0F	.
=98-	=98-
.	.
1D	.
=99-	=99-
*lig	*
1F	.
1G	.
*Xlig	*
=100-	=100-
1A	.
1G	.
=101-	=101-
*lig	*
1F	.
1A	.
*Xlig	*
=102-	=102-
*lig	*
1G	.
1F	.
*Xlig	*
=103-	=103-
*lig	*
1G	.
1D	.
*Xlig	*
=104-	=104-
1D	-ius
!LO:LB:g=original	!
1F	in-
=105-	=105-
1F	-no-
*lig	*
1F	-cens
=106-	=106-
1G	.
*Xlig	*
*lig	*
1G	Ma-
=107-	=107-
1F	.
*Xlig	*
*lig	*
1E	.
=108-	=108-
1D	.
*Xlig	*
*lig	*
1D	.
=109-	=109-
1F	.
*Xlig	*
*lig	*
1E	.
=110-	=110-
1C	.
*Xlig	*
*lig	*
1D	.
=111-	=111-
1F	.
*Xlig	*
1E	.
=112-	=112-
*lig	*
1G	.
1A	.
*Xlig	*
=113-	=113-
*lig	*
1F	.
1E	.
*Xlig	*
=114-	=114-
1D	-ni-
0D	-bus
=115-	=115-
.	.
1F	.
=116-	=116-
*lig	*
1D	.
1C	.
*Xlig	*
=117-	=117-
1D	.
*lig	*
1F	.
=118-	=118-
*custos:F	*
1D	.
*Xlig	*
!LO:LB:g=original	!
!LO:TX:a:t=2	!
0F	.
=119-	=119-
.	.
*lig	*
1E	.
=120-	=120-
1D	.
*Xlig	*
1F	.
=121-	=121-
*lig	*
1C	.
1BB,<	.
*Xlig	*
=122-	=122-
*lig	*
1BB	et
1C	.
*Xlig	*
=123-	=123-
1D	.
*lig	*
1F	.
=124-	=124-
1E	.
*Xlig	*
*lig	*
1D	.
=125-	=125-
1F	.
*Xlig	*
1C	mun-
=126-	=126-
1D	-do
*lig	*
1F	cor-
=127-	=127-
1D	.
*Xlig	*
*lig	*
1F	.
=128-	=128-
1G	.
*Xlig	*
*lig	*
1G	-de
=129-	=129-
1A	.
*Xlig	*
*lig	*
1F	.
=130-	=130-
1E	.
*Xlig	*
*lig	*
1F	.
=131-	=131-
1G	.
*Xlig	*
*lig	*
1C	.
=132-	=132-
1D	.
*Xlig	*
*custos:A	*
!LO:TX:a:t=2	!
0F	.
=133-	=133-
.	.
!LO:LB:g=original	!
*lig	*
1A	.
=134-	=134-
1G	.
*Xlig	*
!LO:TX:a:t=2	!
0F	.
=135-	=135-
.	.
*lig	*
1E	.
=136-	=136-
1D	.
*Xlig	*
1E	.
=137-	=137-
!LO:TX:a:t=2	!
0F	.
=138-	=138-
0Dl;;	.
==	==
*-	*-
!!!RDF**kern: > = above
!!!RDF**kern: < = below
!!!RDF**kern: l = terminal long
!!!ENC: Marta Lawrence
!!!END: 2021-03-28
!!!ENC: Katarzyna Serwa
!!!END: 2021-03-14
!!!YEC: Copyright 2022 Narodowy Instytut Fryderyka Chopina (https://polishscores.org)
!!!YEM: License CC-BY-4.0 (https://creativecommons.org/licenses/by/4.0)
